wp-content/themes/morota-portfolio/assets/img/mic.svg

<svg height="256" viewBox="0 0 512 512" width="256" xmlns="http://www.w3.org/2000/svg"><g fill="#4b4b4b"><path d="m19.564 447.635h24.231v65.371h-24.231z" transform="matrix(-.7071 -.7071 .7071 -.7071 -285.559 842.3594)"/><path d="m.17 494.699 46.224-45.89 16.794 17.136-46.055 45.715z"/><path d="m263.682 147.594-220.209 264.872 56.061 56.061 264.872-220.21zm-164.148 320.934 264.872-220.21"/><path d="m43.642 412.297 220.223-264.551 100.371 100.738-264.687 219.719z"/><path d="m273.211 120.521 118.268 118.268c29.522.34 59.073-10.42 82.226-31.882l-168.613-168.612c-21.461 23.152-32.22 52.704-31.881 82.226z"/><path d="m391.48 238.551-118.1-118.199c-.279-30.238 11.02-59.379 31.887-81.891l168.268 168.614c-22.131 20.18-50.791 31.484-80.695 31.484z"/><path d="m477.097 34.904c-39.747-39.748-100.507-45.498-146.485-17.504l163.988 163.987c27.994-45.978 22.244-106.737-17.503-146.483z"/><path d="m330.783 17.23c18.611-10.984 40.072-16.992 62.018-16.992 31.787 0 61.664 12.371 84.127 34.832 38.895 38.898 46.123 98.863 17.625 145.93z"/></g></svg>

<!--?xml version="1.0" encoding="utf-8"?-->
<!-- Generator: Adobe Illustrator 18.0.0, SVG Export Plug-In . SVG Version: 6.00 Build 0)  -->

<svg version="1.1" id="_x32_" xmlns="http://www.w3.org/2000/svg" xmlns:xlink="http://www.w3.org/1999/xlink" x="0px" y="0px" viewBox="0 0 512 512" style="width: 256px; height: 256px; opacity: 1;" xml:space="preserve">
<style type="text/css">
	.st0{fill:#4B4B4B;}
</style>
<g>
	
		<rect x="19.564" y="447.635" transform="matrix(-0.7071 -0.7071 0.7071 -0.7071 -285.559 842.3594)" class="st0" width="24.231" height="65.371"></rect>
	<polygon class="st0" points="0.17,494.699 46.394,448.809 63.188,465.945 17.133,511.66 	"></polygon>
	<path class="st0" d="M263.682,147.594L43.473,412.466l56.061,56.061l264.872-220.21L263.682,147.594z M99.534,468.528
		l264.872-220.21"></path>
	<path class="st0" d="M43.642,412.297l220.223-264.551l100.371,100.738L99.549,468.203L43.642,412.297z"></path>
	<path class="st0" d="M273.211,120.521l118.268,118.268c29.522,0.34,59.073-10.42,82.226-31.882L305.092,38.295
		C283.631,61.447,272.872,90.999,273.211,120.521z"></path>
	<path class="st0" d="M391.48,238.551l-118.1-118.199c-0.279-30.238,11.02-59.379,31.887-81.891l168.268,168.614
		c-22.131,20.18-50.791,31.484-80.695,31.484L391.48,238.551z"></path>
	<path class="st0" d="M477.097,34.904C437.35-4.844,376.59-10.594,330.612,17.4L494.6,181.387
		C522.594,135.409,516.844,74.65,477.097,34.904z"></path>
	<path class="st0" d="M330.783,17.23c18.611-10.984,40.072-16.992,62.018-16.992c31.787,0,61.664,12.371,84.127,34.832
		c38.895,38.898,46.123,98.863,17.625,145.93L330.783,17.23z"></path>
</g>
</svg>
